X: 29478
T: Night We Had The Port, The
R: slide
M: 12/8
K: Eminor
E3 EFG F2E D2A|B2E GAB A2c EGB|c3 cBA B2G E2G|F3 GFD BDG FED|
E3 EFG F2E D2A|B2E GAB A2c EGB|c3 cBA B2G E2G|A3 AGE F3 GAB||
c3 cBA B2G E2G|F3 GFD EGB ded|c3 cBA B2G E2G|F3 fdB AGF EGB|
c3 cBA B2G E2G|F3 GFD EGB ded|c3 cBA B2G E2G|F3 BDG FED E3||

